svgs/duotone/grid.svg

<svg xmlns="http://www.w3.org/2000/svg" viewBox="0 0 448 512"><!--! Font Awesome Pro 6.4.2 by @fontawesome - https://fontawesome.com License - https://fontawesome.com/license (Commercial License) Copyright 2023 Fonticons, Inc. --><path class="fa-primary" style="fill:var(--fa-primary-color,inherit);opacity:var(--fa-primary-opacity,1);" d="M0 72C0 49.9 17.9 32 40 32H88c22.1 0 40 17.9 40 40v48c0 22.1-17.9 40-40 40H40c-22.1 0-40-17.9-40-40V72zM0 392c0-22.1 17.9-40 40-40H88c22.1 0 40 17.9 40 40v48c0 22.1-17.9 40-40 40H40c-22.1 0-40-17.9-40-40V392zM288 232v48c0 22.1-17.9 40-40 40H200c-22.1 0-40-17.9-40-40V232c0-22.1 17.9-40 40-40h48c22.1 0 40 17.9 40 40zM320 72c0-22.1 17.9-40 40-40h48c22.1 0 40 17.9 40 40v48c0 22.1-17.9 40-40 40H360c-22.1 0-40-17.9-40-40V72zM448 392v48c0 22.1-17.9 40-40 40H360c-22.1 0-40-17.9-40-40V392c0-22.1 17.9-40 40-40h48c22.1 0 40 17.9 40 40z"/><path class="fa-secondary" style="fill:var(--fa-secondary-color,inherit);opacity:var(--fa-secondary-opacity,.4);" d="M200 32c-22.1 0-40 17.9-40 40v48c0 22.1 17.9 40 40 40h48c22.1 0 40-17.9 40-40V72c0-22.1-17.9-40-40-40H200zM40 192c-22.1 0-40 17.9-40 40v48c0 22.1 17.9 40 40 40H88c22.1 0 40-17.9 40-40V232c0-22.1-17.9-40-40-40H40zM160 392v48c0 22.1 17.9 40 40 40h48c22.1 0 40-17.9 40-40V392c0-22.1-17.9-40-40-40H200c-22.1 0-40 17.9-40 40zM360 192c-22.1 0-40 17.9-40 40v48c0 22.1 17.9 40 40 40h48c22.1 0 40-17.9 40-40V232c0-22.1-17.9-40-40-40H360z"/></svg>

<svg xmlns="http://www.w3.org/2000/svg" viewBox="0 0 448 512"><!--! Font Awesome Pro 6.1.1 by @fontawesome - https://fontawesome.com License - https://fontawesome.com/license (Commercial License) Copyright 2022 Fonticons, Inc. --><defs><style>.fa-secondary{opacity:.4}</style></defs><path class="fa-primary" d="M0 72C0 49.91 17.91 32 40 32H88C110.1 32 128 49.91 128 72V120C128 142.1 110.1 160 88 160H40C17.91 160 0 142.1 0 120V72zM0 392C0 369.9 17.91 352 40 352H88C110.1 352 128 369.9 128 392V440C128 462.1 110.1 480 88 480H40C17.91 480 0 462.1 0 440V392zM288 280C288 302.1 270.1 320 248 320H200C177.9 320 160 302.1 160 280V232C160 209.9 177.9 192 200 192H248C270.1 192 288 209.9 288 232V280zM320 72C320 49.91 337.9 32 360 32H408C430.1 32 448 49.91 448 72V120C448 142.1 430.1 160 408 160H360C337.9 160 320 142.1 320 120V72zM448 440C448 462.1 430.1 480 408 480H360C337.9 480 320 462.1 320 440V392C320 369.9 337.9 352 360 352H408C430.1 352 448 369.9 448 392V440z"/><path class="fa-secondary" d="M248 32C270.1 32 288 49.91 288 72V120C288 142.1 270.1 160 248 160H200C177.9 160 160 142.1 160 120V72C160 49.91 177.9 32 200 32H248zM88 192C110.1 192 128 209.9 128 232V280C128 302.1 110.1 320 88 320H40C17.91 320 0 302.1 0 280V232C0 209.9 17.91 192 40 192H88zM160 392C160 369.9 177.9 352 200 352H248C270.1 352 288 369.9 288 392V440C288 462.1 270.1 480 248 480H200C177.9 480 160 462.1 160 440V392zM408 192C430.1 192 448 209.9 448 232V280C448 302.1 430.1 320 408 320H360C337.9 320 320 302.1 320 280V232C320 209.9 337.9 192 360 192H408z"/></svg>
